icons/glyphs/glyph-dropbox.svg

<?xml version="1.0" encoding="UTF-8" standalone="no"?><svg height="22" viewBox="0 0 22 22" width="22" xmlns="http://www.w3.org/2000/svg"><sodipodi:namedview/><metadata><rdf:RDF><cc:Work><dc:format>image/svg+xml</dc:format><dc:type/><dc:title/></cc:Work></rdf:RDF></metadata><path d="m6.4648436.68164045-6.4648436 4.27148435 4.4746092 3.6113282 6.5253908-4.0605469zm4.5351564 3.82226565 6.525391 4.0605469 4.474609-3.6113282-6.470703-4.25976565zm6.525391 4.0605469-6.525391 4.060547 4.529297 3.810547 6.470703-4.259766zm-6.525391 4.060547-6.5253908-4.060547-4.4746092 3.611328 6.4707029 4.259766zm.01367.820312-4.5429691 3.798828-1.9433593-1.279297v1.433594l6.4863304 3.919923 6.484375-3.919923v-1.433594l-1.943359 1.279297z" fill="#fff" fill-opacity=".746514" stroke-opacity=".359677" stroke-width="23.615999"/></svg>

<?xml version="1.0" encoding="UTF-8" standalone="no"?>
<!-- Created with Inkscape (http://www.inkscape.org/) -->

<svg
   xmlns:dc="http://purl.org/dc/elements/1.1/"
   xmlns:cc="http://creativecommons.org/ns#"
   xmlns:rdf="http://www.w3.org/1999/02/22-rdf-syntax-ns#"
   xmlns:svg="http://www.w3.org/2000/svg"
   xmlns="http://www.w3.org/2000/svg"
   xmlns:sodipodi="http://sodipodi.sourceforge.net/DTD/sodipodi-0.dtd"
   xmlns:inkscape="http://www.inkscape.org/namespaces/inkscape"
   width="22"
   height="22"
   viewBox="0 0 22 22"
   version="1.1"
   id="svg8"
   inkscape:version="0.92+devel 15675 custom"
   sodipodi:docname="glyph-dropbox.svg">
  <defs
     id="ol-defs">
    <style
       id="current-color-scheme">      .ColorScheme-Text {
        color:#d0d0d0;
        stop-color:#d0d0d0;
      }
      .ColorScheme-Background {
        color:#212121;
        stop-color:#212121;
      }
      .ColorScheme-Highlight {
        color:#0039a9;
        stop-color:#0039a9;
      }
      .ColorScheme-ViewText {
        color:#d0d0d0;
        stop-color:#d0d0d0;
      }
      .ColorScheme-ViewBackground {
        color:#19191b;
        stop-color:#19191b;
      }
      .ColorScheme-ViewHover {
        color:#005cc7;
        stop-color:#005cc7;
      }
      .ColorScheme-ViewFocus{
        color:#002466;
        stop-color:#002466;
      }
      .ColorScheme-ButtonText {
        color:#d0d0d0;
        stop-color:#d0d0d0;
      }
      .ColorScheme-ButtonBackground {
        color:#232323;
        stop-color:#232323;                             
      }                                                 
      .ColorScheme-ButtonHover {                        
        color:#005cc7;                                  
        stop-color:#005cc7;                             
      }                                                 
      .ColorScheme-ButtonFocus{                         
        color:#0039a9;                                  
        stop-color:#0039a9;                             
      }</style>
  </defs>
  <sodipodi:namedview
     id="base"
     pagecolor="#002266"
     bordercolor="#ffffff"
     borderopacity="0.46666667"
     inkscape:pageopacity="0"
     inkscape:pageshadow="2"
     inkscape:zoom="18.500001"
     inkscape:cx="-4.3469636"
     inkscape:cy="10.571394"
     inkscape:document-units="px"
     inkscape:current-layer="svg8"
     inkscape:document-rotation="0"
     showgrid="false"
     inkscape:showpageshadow="false"
     borderlayer="true"
     units="px"
     fit-margin-top="0"
     fit-margin-left="0"
     fit-margin-right="0"
     fit-margin-bottom="0"
     inkscape:window-width="1920"
     inkscape:window-height="1051"
     inkscape:window-x="0"
     inkscape:window-y="0"
     inkscape:window-maximized="1"
     inkscape:snap-object-midpoints="true"
     inkscape:snap-page="true"
     inkscape:snap-bbox="true"
     inkscape:bbox-nodes="true"
     inkscape:snap-center="true"
     inkscape:snap-smooth-nodes="true"
     inkscape:snap-midpoints="true" />
  <metadata
     id="metadata5">
    <rdf:RDF>
      <cc:Work
         rdf:about="">
        <dc:format>image/svg+xml</dc:format>
        <dc:type
           rdf:resource="http://purl.org/dc/dcmitype/StillImage" />
        <dc:title />
      </cc:Work>
    </rdf:RDF>
  </metadata>
  <path
     style="fill:#ffffff;fill-opacity:0.74651441;stroke-width:23.61599922;stroke-opacity:0.3596773"
     d="M 6.4648436,0.68164045 0,4.9531248 4.4746092,8.564453 11,4.5039061 Z M 11,4.5039061 17.525391,8.564453 22,4.9531248 15.529297,0.69335915 Z M 17.525391,8.564453 11,12.625 15.529297,16.435547 22,12.175781 Z M 11,12.625 4.4746092,8.564453 0,12.175781 6.4707029,16.435547 Z m 0.01367,0.820312 -4.5429691,3.798828 -1.9433593,-1.279297 v 1.433594 l 6.4863304,3.919923 6.484375,-3.919923 v -1.433594 l -1.943359,1.279297 z"
     id="rect4265"
     inkscape:connector-curvature="0"
     inkscape:label="glyph" />
</svg>
